build/documents/FileXLSSolid.svg

<svg xmlns="http://www.w3.org/2000/svg" fill="none" viewBox="0 0 24 24" focusable="false"><path d="M0 0H24V24H0z"/><path fill="#74767B" fill-rule="evenodd" d="M22 14C22 12.3431 20.6569 11 19 11L19 9.17966C19 8.42148 18.7129 7.69141 18.1965 7.13629L15.2385 3.95662C14.671 3.34655 13.8752 3 13.042 3L8 3C6.34315 3 5 4.34315 5 6L5 11C3.34315 11 2 12.3431 2 14L2 18C2 19.6569 3.34315 21 5 21L19 21C20.6569 21 22 19.6569 22 18L22 14ZM8 4.3L13.042 4.3C13.1461 4.3 13.2491 4.30954 13.3499 4.32811L13.3499 7.04926C13.3499 8.12621 14.223 8.99926 15.2999 8.99926L17.6904 8.99925C17.6968 9.05892 17.7 9.11913 17.7 9.17966L17.7 11L6.3 11L6.3 6C6.3 5.06112 7.06112 4.3 8 4.3ZM16.9447 7.69926L14.6499 5.23254L14.6499 7.04926C14.6499 7.40824 14.9409 7.69926 15.2999 7.69926L16.9447 7.69926ZM11.7622 13.5829C12.1212 13.5829 12.4122 13.8739 12.4122 14.2329L12.4122 17.1224L13.4811 17.1224C13.84 17.1224 14.1311 17.4134 14.1311 17.7724C14.1311 18.1314 13.84 18.4224 13.4811 18.4224L11.7622 18.4224C11.4032 18.4224 11.1122 18.1314 11.1122 17.7724L11.1122 14.2329C11.1122 13.8739 11.4032 13.5829 11.7622 13.5829ZM17.4474 13.5829C17.8064 13.5829 18.0974 13.8739 18.0974 14.2329C18.0974 14.5919 17.8064 14.8829 17.4474 14.8829L16.5876 14.8829C16.4721 14.8829 16.3786 14.9765 16.3786 15.0919C16.3786 15.1792 16.4329 15.2574 16.5147 15.2878L17.2678 15.5677C17.845 15.7823 18.2279 16.3331 18.2279 16.9489C18.2279 17.7627 17.5682 18.4224 16.7544 18.4224L15.7286 18.4224C15.3696 18.4224 15.0786 18.1314 15.0786 17.7724C15.0786 17.4134 15.3696 17.1224 15.7286 17.1224L16.7544 17.1224C16.8502 17.1224 16.9279 17.0447 16.9279 16.9489C16.9279 16.8764 16.8828 16.8115 16.8149 16.7863L16.0618 16.5063C15.4707 16.2866 15.0786 15.7225 15.0786 15.0919C15.0786 14.2585 15.7542 13.5829 16.5876 13.5829L17.4474 13.5829ZM6.0444 13.6985C6.33665 13.49 6.74256 13.5579 6.95105 13.8501L7.6863 14.8808L8.42156 13.8501C8.63004 13.5579 9.03596 13.49 9.3282 13.6985C9.62044 13.907 9.68834 14.3129 9.47985 14.6051L8.48476 16L9.47988 17.3949C9.68836 17.6871 9.62047 18.093 9.32823 18.3015C9.03599 18.51 8.63007 18.4421 8.42158 18.1499L7.6863 17.1192L6.95102 18.1499C6.74254 18.4421 6.33662 18.51 6.04438 18.3015C5.75214 18.093 5.68424 17.6871 5.89273 17.3949L6.88785 16L5.89275 14.6051C5.68427 14.3129 5.75216 13.907 6.0444 13.6985Z"/></svg>

<svg xmlns="http://www.w3.org/2000/svg" fill="none" viewBox="0 0 24 24" focusable="false"><path fill="#74767B" fill-rule="evenodd" d="M22 14c0-1.66-1.35-3-3-3V9.17c0-.75-.29-1.48-.81-2.04l-2.96-3.18c-.56-.61-1.36-.95-2.19-.95H8C6.34 3 5 4.34 5 6v5c-1.66 0-3 1.34-3 3v4c0 1.65 1.34 3 3 3h14c1.65 0 3-1.35 3-3zM8 4.29h5.04q.15 0 .3.03v2.72c0 1.08.88 1.95 1.95 1.95h2.4c0 .06.01.12.01.18V11H6.3V6c0-.94.76-1.71 1.7-1.71m8.94 3.4-2.3-2.46v1.81c0 .36.3.65.65.65zm-5.18 5.89c.36 0 .65.29.65.65v2.89h1.07c.36 0 .65.29.65.65s-.29.65-.65.65h-1.72c-.36 0-.65-.29-.65-.65v-3.54c0-.36.29-.65.65-.65m5.68 0c.36 0 .65.29.65.65s-.29.65-.65.65h-.86c-.11 0-.21.09-.21.21 0 .08.06.16.14.19l.75.28c.58.22.96.77.96 1.38 0 .82-.66 1.48-1.47 1.48h-1.03c-.36 0-.65-.29-.65-.65s.29-.65.65-.65h1.03c.1 0 .17-.08.17-.18 0-.07-.04-.13-.11-.16l-.75-.28c-.59-.22-.99-.78-.99-1.41 0-.84.68-1.51 1.51-1.51zm-11.4.11c.29-.2.7-.14.91.16l.73 1.03.74-1.03a.645.645 0 1 1 1.05.75L8.48 16l.99 1.39c.21.29.15.7-.15.91-.29.21-.69.14-.9-.16l-.74-1.03-.73 1.03a.648.648 0 1 1-1.06-.75L6.88 16l-.99-1.4c-.21-.29-.14-.7.15-.91"/></svg>
